X: 1353
T: Come Love And Meet Me In The Shadow Of The Pines
B: australian traditional tunes wiki
M:3/4
L:1/8
Q: 1/4=100
K:G
V:1 
D2G2||"G"B4B2|"D7"c2B2A2|"G"d4d2|"G"B4A2|"C"G4E2|"C"G4A2|"G"B6|"G"B2D2G2|
"G"B4B2|"D7"c2B2A2|"G"d6|"G"B6|"A7"A4A2|"A7"^c2B2A2|"D7"d2e2d2|"D7"c2B2A2|
"G"B4B2|"D7"c2B2A2|"G"d6|"G"B4A2|"C"G4E2|"C"G4A2|"G"B6|"G"B4c2|
"G"d6|"C"e4d2|"G"d4B2|"C"c4B2|"A7"A2E4|"D7"F4D2|"G"G6-|"G"G6||
% abcbook-tune_id 6342d53a142e48bfdaa5551e


% abcbook-boost 0
% abcbook-tablature 
% abcbook-transpose 
% abcbook-lastupdated 1665324360670
% abcbook-soundfonts 
% abcbook-repeats 1
% NFF Book 2013

